!!!!SEGMENT: Wil3026-La_rouse_du_moys_de_may.krn
!!!id: Wil3026
!!!AGN: Chanson
!!!SCT: Bernstein (1984)
!!!voices: 3
!!!COM: Adrian Willaert
!!!OTL: La rousé du moys de may
**kern	**kern	**kern
*part3	*part2	*part1
*staff3	*staff2	*staff1
*I"Bassus	*I"Tenor	*I"Superius
*I'B	*I'T	*I'S
*clefF4	*clefGv2	*clefGv2
*k[b-]	*k[b-]	*k[b-]
*F:	*F:	*F:
*M2/1	*M2/1	*M2/1
*met(C|)	*met(C|)	*met(C|)
=1	=1	=1
0r	0r	1G
.	.	2d
.	.	[2d
=2	=2	=2
1r	0r	2d]
.	.	2c
1D	.	2d
.	.	2f
=3	=3	=3
2A	0r	1e
1A	.	.
.	.	2r
2G	.	[2e
=4	=4	=4
2A	0r	2e]
2F	.	2d
2E	.	2.g
[2G	.	.
.	.	4f
=5	=5	=5
2G]	0r	4d
.	.	4e
2F	.	2.f
2.D	.	.
.	.	4e
.	.	[2d
4E	.	.
=6	=6	=6
2F	1r	2d]
2G	.	4c
.	.	4B-y
1E-X	1G	2c
.	.	[2B-y
=7	=7	=7
2.D	2d	4B-]
.	.	4A
.	1d	2F
4C	.	.
2BB-y	.	2G
2AA	2c	[2A
=8	=8	=8
2BB-y	2d	4A]
.	.	4G
2GG	2B-y	1G
1AA	2A	.
.	[2c	2F#i
=9	=9	=9
2.GG	2c]	1G
.	2B-y	.
4AA	.	.
2BB-y	2.G	1r
2C	.	.
.	4A	.
=10	=10	=10
2GG	2B-y	1G
2C	2c	.
2D	1A	2d
2F	.	[2d
=11	=11	=11
1E	1G	2d]
.	.	2c
1D	1r	2d
.	.	2B-y
=12	=12	=12
2r	1D	1A
1F	.	.
.	2A	1r
2C	[2A	.
=13	=13	=13
2D	2A]	2r
2E	2G	1c
2F	2A	.
2BB-y	2F	2B-y
=14	=14	=14
2C	1E	2.G
2.G	.	.
.	.	4A
.	2r	2B-y
4F	.	.
4E	[2G	2c
4D	.	.
=15	=15	=15
2C	2G]	1A
2D	2F	.
2GG	2D	2.G
2C	2E	.
.	.	4A
=16	=16	=16
2BB-y	2F	4B-y
.	.	4c
1GG	2G	1B-y
.	1E	.
2AA	.	[2A
=17	=17	=17
2.BB-y	1D	4A]
.	.	4G
.	.	1G
4C	.	.
1AA	2r	.
.	[2c	2F#i
=18	=18	=18
2GG	2c]	2.G
2.G	2B-y	.
.	.	4A
.	2G	4B-y
4E	.	4c
2F	2A	[2d
=19	=19	=19
2G	2B-y	4d]
.	.	4B-y
2C	2c	2.e-i
2.D	1A	.
.	.	4d
.	.	[2d
4F	.	.
=20	=20	=20
1E-i	1G	2d]
.	.	2c
1D	1r	[1d
=21	=21	=21
2r	1G	1d]
1GG	.	.
.	2G	1r
2GG	[2B-y	.
=22	=22	=22
2D	2B-]	1F
2D	2A	.
2.BB-y	2B-y	2F
.	2G	[2B-y
4C	.	.
=23	=23	=23
1D	2F	2B-]
.	2F	2A
2GG	2G	2B-y
2GG	[2B-y	2G
=24	=24	=24
2D	2B-]	2F
2D	2A	2f
1BB-y	2B-y	2g
.	2B-y	[2f
=25	=25	=25
1C	1G	2f]
.	.	2e
1D	2r	2f
.	2F	2f
=26	=26	=26
2GG	2G	1d
2D	2A	.
2D	2B-y	1r
2C	[2A	.
=27	=27	=27
2D	2A]	0r
2BB-y	2G	.
2AA	2.A	.
[2C	.	.
.	8GL	.
.	8FJ	.
=28	=28	=28
2C]	2E	2G
2BB-y	2D	2d
2GG	1E	2d
2AA	.	2c
=29	=29	=29
2.BB-y	1D	2d
.	.	2B-y
4C	.	.
2D	1r	2A
2E	.	[2c
=30	=30	=30
2F	0r	2c]
2G	.	2B-y
2E	.	2G
[2D	.	2A
=31	=31	=31
2D]	0r	2.B-y
1G	.	.
.	.	4c
.	.	1A
2F#i	.	.
=32	=32	=32
0G	2r	2.G
.	2G	.
.	.	4A
.	2d	4B-y
.	.	4c
.	[2d	[2B-y
=33	=33	=33
1r	2d]	4B-]
.	.	4G
.	2c	2A
2r	2d	2B-y
[2D	2B-y	[2f
=34	=34	=34
2D]	2A	4f]
.	.	4d
2C	1c	2e
2AA	.	2f
2BB-y	2B-y	[2g
=35	=35	=35
2.C	2G	4g]
.	.	4f
.	2A	2e
4C	.	.
2BB-y	2.B-y	2d
2GG	.	[2g
.	4c	.
=36	=36	=36
1D	1A	2g]
.	.	2f#i
2r	1G	1g
[2C	.	.
=37	=37	=37
2C]	2r	0r
2BB-y	1G	.
2GG	.	.
2AA	2F	.
=38	=38	=38
2BB-y	2D	1G
2C	2E	.
2.BB-y	2F	2d
.	2G	[2d
4GG	.	.
=39	=39	=39
1AA	1E	2d]
.	.	2c
2r	1D	2d
2D	.	2f
=40	=40	=40
2A	0r	1e
1A	.	.
.	.	2r
2G	.	[2e
=41	=41	=41
2A	0r	2e]
2F	.	2d
2E	.	2.g
[2G	.	.
.	.	4f
=42	=42	=42
2G]	0r	4d
.	.	4e
2F	.	2.f
2.D	.	.
.	.	4e
.	.	[2d
4E	.	.
=43	=43	=43
2F	1r	2d]
2G	.	4c
.	.	4B-y
1E-X	1G	2c
.	.	[2B-y
=44	=44	=44
1D	2d	4B-]
.	.	4A
.	1d	2F
2r	.	2G
2AA	2c	[2A
=45	=45	=45
2BB-y	2d	4A]
.	.	4G
2GG	2B-y	1G
1AA	2A	.
.	[2c	2F#i
=46	=46	=46
2.GG	2c]	1G
.	2B-y	.
4AA	.	.
2BB-y	2.G	1r
2C	.	.
.	4A	.
=47	=47	=47
2D	2B-y	2r
2E	2c	2G
2.F	1A	2d
.	.	[2d
4D	.	.
=48	=48	=48
1E	1G	2d]
.	.	2c
1D	1r	2d
.	.	2B-y
=49	=49	=49
2r	1D	1A
1F	.	.
.	2A	1r
2C	[2A	.
=50	=50	=50
2D	2A]	2r
2E	2G	1c
2F	2A	.
2BB-y	2F	2B-y
=51	=51	=51
2C	1E	2.G
2.G	.	.
.	.	4A
.	2r	2B-y
4F	.	.
4E	[2G	2c
4D	.	.
=52	=52	=52
2C	2G]	1A
2D	2F	.
2GG	2D	2.G
2C	2E	.
.	.	4A
=53	=53	=53
2BB-y	2F	4B-y
.	.	4c
1GG	2G	1B-y
.	1E	.
2AA	.	4A
.	.	4G
=54	=54	=54
2.BB-y	1D	2F
.	.	1G
4C	.	.
1AA	2r	.
.	[2c	2F
=55	=55	=55
2GG	2c]	2.G
2.G	2B-y	.
.	.	4A
.	2G	4B-y
4E	.	4c
2F	2A	[2d
=56	=56	=56
2G	2B-y	4d]
.	.	4G
2C	2c	1g
1D	1A	.
.	.	2f#i
=57	=57	=57
00GGl	00Gl	00gl
==	==	==
*-	*-	*-
!!!system-decoration: [*]
!!!RDF**kern: i = editorial accidental
!!!RDF**kern: l = terminal long
!!!ENC: Benjamin Ory
!!!END: 2023/10/3
!!!EED: Benjamin Ory
!!!EEV: 2023/10/03
!!!YEC: Copyright 2023 Benjamin Ory, All Rights Reserved
!!!ONB: Translated from MusicXML on 2023/10/03
